X:054
T: Nora Creena
T: Nora Crionna
N: O'Farrell's Pocket Companion v.1 (Sky ed. p.41-42)
M: 6/8
L: 1/8
R: jig
Q: 320
K: D
DED D2G|A2D A2F|DED D2F|E2F G2E|DED D2G|
F2D A2F|EFE cBc|E2F G2E :|
P:2
D2A A2G|F2D A2F|D2A A2F|E2F G2E|D2A A2F|D2B B2G|
EFE cBc|E2F G2E :|
P:3
ded d2g|f2d g2e|ded d2f|e2f g2e|ded d2B|ced c2G|
EFE cBc|E2F G2E :|
P:4
D2d dcd| F2D A2F|D2d dcd|E2F G2E|d2B c2A|B2G A2F|
E2E cBc|E2F G2E :|
